icons/Bell(Outlined).svg

<svg width="24" height="24" viewBox="0 0 24 24" fill="none" xmlns="http://www.w3.org/2000/svg">
<path fill-rule="evenodd" clip-rule="evenodd" d="M12.326 4.667C15.94 4.756 16.898 6.249 16.898 11.567C16.9193 12.7928 17.1902 14.0015 17.6943 15.1191C18.1985 16.2367 18.9251 17.2397 19.83 18.067H4.171C5.07585 17.2397 5.80254 16.2367 6.30666 15.1191C6.81078 14.0015 7.08174 12.7928 7.103 11.567C7.103 6.253 8.061 4.759 11.675 4.667H12.326ZM13.753 20.176C13.7376 20.6307 13.5462 21.0616 13.2191 21.3778C12.8921 21.694 12.4549 21.8708 12 21.8708C11.5451 21.8708 11.1079 21.694 10.7809 21.3778C10.4538 21.0616 10.2624 20.6307 10.247 20.176H13.753ZM12 0.999999C12.3079 0.991662 12.6065 1.10589 12.8302 1.31759C13.0539 1.52929 13.1844 1.82113 13.193 2.129V3.587C13.193 3.587 13.193 3.593 13.193 3.595C17.293 4.014 18.093 6.687 18.093 11.563C18.093 15.074 20.639 17.677 22.002 18.087L21.821 19.187H2.181L2 18.087C3.364 17.676 5.909 15.074 5.909 11.563C5.909 5.49 7.557 3.855 10.809 3.578V2.129C10.8179 1.82158 10.9482 1.53019 11.1714 1.31861C11.3946 1.10702 11.6925 0.992466 12 0.999999Z" fill="black"/>
</svg>

<svg xmlns="http://www.w3.org/2000/svg" viewBox="0 0 24 24">
  <path d="M12.326 4.667c3.614.089 4.572 1.582 4.572 6.9a9.02 9.02 0 002.932 6.5H4.171a9.02 9.02 0 002.932-6.5c0-5.314.958-6.808 4.572-6.9h.651zm1.427 15.509a1.754 1.754 0 01-3.506 0h3.506zM12 1a1.162 1.162 0 011.193 1.129v1.466c4.1.419 4.9 3.092 4.9 7.968 0 3.511 2.546 6.114 3.909 6.524l-.181 1.1H2.181L2 18.087c1.364-.411 3.909-3.013 3.909-6.524 0-6.073 1.648-7.708 4.9-7.985V2.129A1.163 1.163 0 0112 1z"/>
</svg>
